// @title W01-01
// @license CC BY-NC-SA 4.0 https://creativecommons.org/licenses/by-nc-sa/4.0/
// @by vigliensoni
// @date Jan 13, 2026

// 01
sound("bd [~ rim] mt [lt ht]")
  .dist("2:0.5")
  .chunk(4, x => x.hurry(2))
//
  s("bd bd [cp cp] bd/5*4 . hh hh oh oh ).bank("RolandTR808") 