// @title W01-02
// @license CC BY-NC-SA 4.0 https://creativecommons.org/licenses/by-nc-sa/4.0/
// @by vigliensoni
// @date Jan 18, 2026

// 02
setcps(130/60/4)

s("bd bd [bd]*4 cp rim ~ lt lt[lt]/5*3").bank("RolandTR808")