// @title W01-03
// @license CC BY-NC-SA 4.0 https://creativecommons.org/licenses/by-nc-sa/4.0/
// @by vigliensoni
// @date Jan 18, 2026

// 03
setcps(130/60/4)

$: s("bd!3 [mt*2]!2 hh!2")
.slow(2)
.bank("RolandTr909")

$: s("[~ bd]!2")
.gain(0.75)
.bank("RolandTr909")
